src/16/actions/media-album-track.svg

<svg xmlns="http://www.w3.org/2000/svg" width="16" height="16"><defs><style id="current-color-scheme" type="text/css"></style></defs><path d="M1 1v14h6v-2H4V3h11V1H1zm11 4v5.5a2.477 2.477 0 0 0-1.5-.5A2.495 2.495 0 0 0 8 12.5c0 1.385 1.115 2.5 2.5 2.5s2.5-1.115 2.5-2.5V7h2c0-1.108-.892-2-2-2h-1z" fill="currentColor" color="#565656"/></svg>

<svg xmlns="http://www.w3.org/2000/svg" width="16" height="16" viewBox="0 0 16 16">
 <defs>
  <style id="current-color-scheme" type="text/css">
   .ColorScheme-Text { color:#565656; } .ColorScheme-Highlight { color:#5294e2; }
  </style>
 </defs>
 <path style="fill:currentColor" class="ColorScheme-Text" d="M 1 1 L 1 15 L 7 15 L 7 13 L 4 13 L 4 3 L 15 3 L 15 1 L 1 1 z M 12 5 L 12 10.5 C 11.5818 10.1852 11.066 10 10.5 10 C 9.115 10 8 11.115 8 12.5 C 8 13.885 9.115 15 10.5 15 C 11.885 15 13 13.885 13 12.5 L 13 7 L 15 7 C 15 5.892 14.108 5 13 5 L 12 5 z"/>
</svg>
